X:41
T:Lord Lovat's Lament
M:4/4
Q:1/4=100
L:1/8
K:G
%%MIDI channel 1
%%MIDI program 72
%%MIDI transpose 8
%%MIDI grace 1/8
%%MIDI ratio 3 1
GA|B2 Bd cB AG|B<d d>e d2 ef|g2 dg ed BG|B<e dB A2 GA|B2 Bd cB AG|
B<d d>e d2 cB|c<e cA B<d cA|G2 G>G G2||ef|g2 dg ed BG|B<d d>e d2 ef|
g2 dg ed BG|B<e d>B A2 GA|B2 Bd cB AG|B<d d>e d2 cB|c<e cA B<d cA|G2 G>G G2|]

